src/assets/icons/arrow-up-right-and-arrow-down-left-from-center.svg

<svg width="14" height="14" viewBox="0 0 14 14" fill="none" xmlns="http://www.w3.org/2000/svg">
<g id="arrow-up-right-and-arrow-down-left-from-center">
<g clip-path="url(#clip0_295_4697)">
<path id="Vector" fill-rule="evenodd" clip-rule="evenodd" d="M8.697 0C8.34554 0 8.06063 0.28491 8.06063 0.636364C8.06063 0.987818 8.34554 1.27273 8.697 1.27273H11.8273L7.82275 5.27729C7.57424 5.52581 7.57424 5.92873 7.82275 6.17725C8.07127 6.42577 8.47419 6.42577 8.7227 6.17725L12.7273 2.17268V5.30303C12.7273 5.65448 13.0122 5.93939 13.3637 5.93939C13.7151 5.93939 14 5.65448 14 5.30303V0.636364C14 0.28491 13.7151 0 13.3637 0H8.697ZM5.30303 14C5.65448 14 5.93939 13.7151 5.93939 13.3636C5.93939 13.0122 5.65448 12.7273 5.30303 12.7273H2.17268L6.17725 8.7227C6.42577 8.47419 6.42577 8.07127 6.17725 7.82275C5.92874 7.57423 5.52581 7.57423 5.2773 7.82275L1.27273 11.8273L1.27273 8.69697C1.27273 8.34552 0.987818 8.06061 0.636364 8.06061C0.28491 8.06061 0 8.34552 0 8.69697V13.3636C0 13.7151 0.28491 14 0.636364 14H5.30303Z" fill="black"/>
</g>
</g>
<defs>
<clipPath id="clip0_295_4697">
<rect width="14" height="14" fill="white"/>
</clipPath>
</defs>
</svg>

<svg xmlns="http://www.w3.org/2000/svg" fill="none" viewBox="0 0 14 14"><g clip-path="url(#a)"><path fill="#000" fill-rule="evenodd" d="M8.697 0a.636.636 0 1 0 0 1.273h3.13L7.823 5.277a.636.636 0 0 0 .9.9l4.004-4.004v3.13a.636.636 0 0 0 1.273 0V.636A.636.636 0 0 0 13.364 0zM5.303 14a.636.636 0 0 0 0-1.273h-3.13l4.004-4.004a.636.636 0 1 0-.9-.9l-4.004 4.004v-3.13a.636.636 0 0 0-1.273 0v4.667c0 .351.285.636.636.636z" clip-rule="evenodd"/></g><defs><clipPath id="a"><path fill="#fff" d="M0 0h14v14H0z"/></clipPath></defs></svg>
